X:1
T:Title
%%score { 1 | ( 2 3 ) }
L:1/8
M:6/8
K:Ab
V:1 treble nm="Grand Piano"
V:2 bass 
V:3 bass 
V:1
 z3 z2[Q:1/4=78] [CE] | [CE]2 [CE] [CE][A,C][CE] |[M:7/8] [CE][DF][CA] [Ec]3 [EA] | %3
[M:3/4] B2 BB cB |[M:5/8] [CA]-[CA]- [CA]3 |[M:1/8] [CE] |[M:3/4] [CE]2 [CE][CE] [A,C][CE] | %7
[M:7/8] [CE][DF][CA] [Ec]3 [EA] |[M:3/4] B2 BB cB |[M:5/8] [A,CA]-[A,CA]- [A,CA]3 |[M:1/8] [EAc] | %11
[M:3/4] [GB]2 [Ac] [Bd]2 [GB] | [Ge]2 [Gd] [Ac]2 [Ac] | [GB]2 [Ac] [Bd]2 [Ac] | %14
 [GB]4- [GB][Ec]/[DB]/ | [CA]2 [CA]B AF | [CE]2 [CA] [EA]2 F |[M:7/8] E2 A c3 B | %18
[M:5/8] [CA]-[CA]- [CA]3 |[M:3/4] [CE]2 [_CF][=CE]- [CE]/C/[CE] | [Ec]>[DB] [CA] [CE]3 | %21
[M:7/8] B3 cB>[FA][=DF] | [=DA][DG][DA] [_DB]3 [DB] |[M:3/4] [Ec]>[Ec] [Ec] [Ec]2 [DB]/[CA]/ | %24
 FA F [CE]2 [CE]/[CE]/ |[M:13/16] [CE][DF][EA]cc3/2B |[M:5/8] [CA]-[CA]- [CA]3 |] %27
V:2
 z3 z2 [A,,A,] | [A,,A,]2 [A,,A,] [A,,A,][A,,E,][A,,A,] | %2
[M:7/8] [A,,A,][A,,A,][A,,A,] [A,,A,]3 [C,A,] |[M:3/4] [E,G,D]2 [E,G,D]D E[E,G,D] | %4
[M:5/8] [A,,A,]-[A,,A,]- [A,,A,]3 |[M:1/8] [A,,A,] | %6
[M:3/4] [A,,A,]2 [A,,A,][A,,A,] [A,,E,][A,,A,] |[M:7/8] [A,,A,][A,,A,][A,,A,] [A,,A,]3 [C,A,] | %8
[M:3/4] [E,G,D]2 [E,G,D]D E[E,G,D] |[M:5/8] A,,-A,,- A,,3 |[M:1/8] A,, | %11
[M:3/4] [E,E]2 [E,E] [E,E]2 [E,E] | [E,B,]2 [E,E] [A,E]2 [A,E] | [E,E]2 [E,E] [E,E]2 [E,E] | %14
 [E,E]4- [E,E][E,G,] | [A,,A,]2 [A,,A,] [D,F,D]2 [D,A,D] | [A,,A,]2 [A,,A,] [C,A,]2 [D,A,D] | %17
[M:7/8] [E,A,C]2 [E,A,C] [E,G,E]3 [E,G,D] |[M:5/8] [A,,A,]-[A,,A,]- [A,,A,]3 | %19
[M:3/4] [A,,A,]2 [A,,=D,][A,,E,]- [A,,E,]/[A,,A,]/[A,,A,] | [A,,A,]>[A,,A,] [A,,A,] [A,,A,]3 | %21
[M:7/8] [E,G,E]3 [E,A,E][E,G,E]>[=D,B,][B,,B,] | [B,,A,][B,,A,][B,,A,] [E,G,]3 [E,G,] | %23
[M:3/4] [A,,A,]>[A,,A,] [A,,A,] [A,,A,]2 [A,,A,]/[A,,A,]/ | %24
 [D,A,D][D,F,D] [D,A,D] [A,,A,]2 [A,,A,]/[A,,A,]/ | %25
[M:13/16] [A,,A,][D,A,][C,A,][E,A,E][E,G,D]3/2[E,G,D] |[M:5/8] [A,,A,]-[A,,A,]- [A,,A,]3 |] %27
V:3
 x6 | x6 |[M:7/8] x7 |[M:3/4] z2 z .[E,G,]3 |[M:5/8] x5 |[M:1/8] x |[M:3/4] x6 |[M:7/8] x7 | %8
[M:3/4] z2 z .[E,G,]3 |[M:5/8] x5 |[M:1/8] x |[M:3/4] x6 | x6 | x6 | x6 | x6 | x6 |[M:7/8] x7 | %18
[M:5/8] x5 |[M:3/4] x6 | x6 |[M:7/8] x7 | x7 |[M:3/4] x6 | x6 |[M:13/16] x13/2 |[M:5/8] x5 |] %27

